src/components/00-materials/images-raw/Travel Case.svg

<svg width="96" height="96" viewBox="0 0 96 96" fill="none" xmlns="http://www.w3.org/2000/svg">
<path d="M77 31H19C16.2386 31 14 33.2386 14 36V70C14 72.7614 16.2386 75 19 75H77C79.7614 75 82 72.7614 82 70V36C82 33.2386 79.7614 31 77 31Z" stroke="#00008F" stroke-width="2" stroke-linecap="round" stroke-linejoin="round"/>
<path d="M22 31V75V31ZM27 31V75V31ZM69 31V75V31ZM74 31V75V31ZM59.82 25.43L63 31L59.82 25.43ZM36.18 25.43L33 31L36.18 25.43ZM35 40H47V50H35V40ZM52 46H61V51H52V46ZM42 56H51V64H42V56ZM35 23.22C34.9995 23.5679 35.0722 23.9121 35.2134 24.23C35.3546 24.548 35.5611 24.8327 35.8195 25.0657C36.0779 25.2987 36.3824 25.4746 36.7133 25.5822C37.0442 25.6897 37.394 25.7265 37.74 25.69C40.52 25.4 44.85 25 48 25C51.15 25 55.48 25.4 58.26 25.69C58.606 25.7265 58.9558 25.6897 59.2867 25.5822C59.6176 25.4746 59.9221 25.2987 60.1805 25.0657C60.4389 24.8327 60.6454 24.548 60.7866 24.23C60.9278 23.9121 61.0005 23.5679 61 23.22C61.0034 22.6076 60.7792 22.0157 60.3708 21.5593C59.9624 21.1029 59.399 20.8145 58.79 20.75C56.06 20.45 51.35 20 48 20C44.65 20 39.94 20.45 37.21 20.75C36.601 20.8145 36.0376 21.1029 35.6292 21.5593C35.2208 22.0157 34.9966 22.6076 35 23.22V23.22Z" stroke="#00008F" stroke-width="2" stroke-linecap="round" stroke-linejoin="round"/>
</svg>

<svg width="96" height="96" viewBox="0 0 96 96" fill="none" xmlns="http://www.w3.org/2000/svg"><path d="M77 31H19a5 5 0 00-5 5v34a5 5 0 005 5h58a5 5 0 005-5V36a5 5 0 00-5-5z" stroke="#00008F" stroke-width="2" stroke-linecap="round" stroke-linejoin="round"/><path d="M22 31v44-44zm5 0v44-44zm42 0v44-44zm5 0v44-44zm-14.18-5.57L63 31l-3.18-5.57zm-23.64 0L33 31l3.18-5.57zM35 40h12v10H35V40zm17 6h9v5h-9v-5zM42 56h9v8h-9v-8zm-7-32.78a2.48 2.48 0 002.74 2.47C40.52 25.4 44.85 25 48 25c3.15 0 7.48.4 10.26.69A2.48 2.48 0 0061 23.22a2.47 2.47 0 00-2.21-2.47C56.06 20.45 51.35 20 48 20c-3.35 0-8.06.45-10.79.75A2.47 2.47 0 0035 23.22v0z" stroke="#00008F" stroke-width="2" stroke-linecap="round" stroke-linejoin="round"/></svg>
